!!!!SEGMENT: pl-wnifc--6666-n--004_namyslowski-karol--mazur-tego-mi-graj-.krn
!!!cenid: 18xx:3987
!!!COM: Namysłowski, Karol
!!!COM-rismID: pe30020486
!!!CDT: 1856-1925
!!!CNT: Polish
!!!OTL: Mazur „Tego mi graj”
!!!PDT:
!!!AGN:
!!!SMS-siglum: PL-Wnifc
!!!SMS-shelfmark: 6666/n
!!!SMS-shelfwork: 004 W
!!!SMS-variant:
!!!SMS-altvar:
!!!NIFC-rismSourceID: 1001150235
!!!NIFC-rismChildID: 1001150257
!!!NIFC-islandoraID: nifc:213162
!!!URL-pdf-islandora: https://repozytorium.nifc.pl/islandora/object/nifc%3A213162/datastream/PDF/view
!!!URL-scan: https://polish.musicsources.pl/pl/lokalizacje/galeria/klocki-introligatorskie/687 @EN{Scan on Polish Music Sources Website} @PL{Skany w portalu Dziedzictwo Muzyki Polskiej w otwartym dostępie}
!!!ONB-nifc: UWAGA: skan 10
!!!AIN: 2 piano 1 vox
!!!key: D
**kern	**kern	**text	**dynam	**kern	**text
*part3	*part2	*part2	*part2	*part1	*part1
*staff3	*staff2	*staff2	*	*staff1	*staff1
*I"Piano	*I"Fortepian.	*	*	*I"Śpiew.	*
*	*I'pf	*	*	*I'voce umana	*
*Ipiano	*Ipiano	*	*	*Ivox	*
*ICvox	*ICvox	*	*	*ICvox	*
*clefF4	*clefG2	*	*	*clefG2	*
*k[f#c#]	*k[f#c#]	*	*	*k[f#c#]	*
*D:	*D:	*	*	*D:	*
*M3/8	*M3/8	*	*	*M3/8	*
=1	=1	=1	=1	=1	=1
!	!LO:TUP:a	!	!	!	!
*	*	*	*below	*	*
8DD/L 8D	(24a\LL	.	f	4.ryy	.
.	24dd\	.	.	.	.
.	24ff#\JJ)	.	.	.	.
8FF#/ 8F#	8a\L 8dd 8aa	.	.	.	.
8GG/J 8G	8b\J 8dd 8bb	.	.	.	.
=2	=2	=2	=2	=2	=2
8D\L	16a\ 16dd 16aa	.	.	4.ryy	.
.	16r	.	.	.	.
8F#\ 8A 8d	4a^\ 4dd 4ff#	.	.	.	.
8F#\J 8A 8d	.	.	.	.	.
=3	=3	=3	=3	=3	=3
!	!LO:TUP:a	!	!	!	!
8AA\L	(24ee\LL	.	.	4.ryy	.
.	24ff#\	.	.	.	.
.	24gg\JJ)	.	.	.	.
8G\ 8A 8c#	8ee\L	.	.	.	.
8G\J 8A 8c#	16cc#\L	.	.	.	.
.	16a\JJ	.	.	.	.
=4	=4	=4	=4	=4	=4
8D\L	16.dd\LL	.	.	4.ryy	.
.	32ff#\JJk	.	.	.	.
8F#\ 8A	8aa\L	.	.	.	.
.	(8qgg#X/	.	.	.	.
8AA\J 8C# 8E 8A	8aa\J)	.	.	.	.
=5	=5	=5	=5	=5	=5
!	!LO:TUP:a	!	!	!	!
8D\ 8F# 8A	(24a\LL	.	.	4.ryy	.
.	24dd\	.	.	.	.
.	24ff#\JJ)	.	.	.	.
8FF#/L 8F#	8a\L 8dd 8aa	.	.	.	.
8GG/J 8G	8b\J 8dd 8bb	.	.	.	.
=6	=6	=6	=6	=6	=6
8D\L	16a\ 16dd 16aa	.	.	4.ryy	.
.	16r	.	.	.	.
8F#\ 8A 8d	4a^\ 4dd 4ff#	.	.	.	.
8F#\J 8A 8d	.	.	.	.	.
!LO:LB:g=original	!LO:LB:g=original	!	!	!LO:LB:g=original	!
=7	=7	=7	=7	=7	=7
*^	*	*	*	*	*
!	!	!LO:TUP:a	!	!	!	!
4.E/	8E\L	(24ee\LL	.	ff	4.ryy	.
.	.	24ff#\	.	.	.	.
.	.	24gg#X\JJ)	.	.	.	.
.	8G#X\ 8B 8d	8ee\L	.	.	.	.
.	8G#\J 8B 8d	16gg#\L	.	.	.	.
.	.	16bb\JJ	.	.	.	.
*v	*v	*	*	*	*	*
=8	=8	=8	=8	=8	=8
8AA\L	16.ddd\LL	.	.	4.ryy	.
.	32ddd\JJk	.	.	.	.
8E\ 8A 8c#	8ccc#W\L	.	.	.	.
8E\J 8A 8c#	8aa\J	.	.	.	.
=9	=9	=9	=9	=9	=9
!	!LO:TUP:a	!	!	!	!
8DD/L 8D	(24a\LL	.	f	4.ryy	.
.	24dd\	.	.	.	.
.	24ff#\JJ)	.	.	.	.
8FF#/ 8F#	8dd\L 8aa	.	.	.	.
8GG/J 8G	8b\J 8dd 8bb	.	.	.	.
=10	=10	=10	=10	=10	=10
8D\L	16a\ 16dd 16aa	.	.	4.ryy	.
.	16r	.	.	.	.
8F#\ 8A 8d	4a^\ 4dd 4ff#	.	.	.	.
8F#\J 8A 8d	.	.	.	.	.
=11	=11	=11	=11	=11	=11
!	!LO:TUP:a	!	!	!	!
8AA\L	(24ee\LL	.	.	4.ryy	.
.	24ff#\	.	.	.	.
.	24gg\JJ)	.	.	.	.
8G\ 8A 8c#	8ee\L	.	.	.	.
8G\J 8A 8c#	16cc#\L	.	.	.	.
.	16a\JJ	.	.	.	.
=12	=12	=12	=12	=12	=12
8D\L	16.dd\LL	.	.	4.ryy	.
.	32ff#\JJk	.	.	.	.
8F#\ 8A	8aa\L	.	.	.	.
.	(8qgg#X/	.	.	.	.
8AA\J 8C# 8E 8A	8aa\J)	.	.	.	.
=13	=13	=13	=13	=13	=13
!	!LO:TUP:a	!	!	!	!
8D\L	(24a\LL	.	.	4.ryy	.
.	24dd\	.	.	.	.
.	24ff#\JJ)	.	.	.	.
8F#\ 8A 8d	8aa\L	.	.	.	.
8C#\J 8F# 8A#X	8ee\J 8aa#X	.	.	.	.
!LO:LB:g=original	!LO:LB:g=original	!	!	!LO:LB:g=original	!
=14	=14	=14	=14	=14	=14
16BB\ 16F# 16B	16dd#X\ 16bb	.	.	4.ryy	.
16r	16r	.	.	.	.
4E^\ 4G#X 4B	8.ee\L 8.gg#X 8.eee	.	.	.	.
.	16ddd#X\Jk	.	.	.	.
=15	=15	=15	=15	=15	=15
8AA/	16.cc#\LL 16.ggn 16.ccc#	.	.	4.ryy	.
.	32bb\JJk	.	.	.	.
8r	8aa\L	.	.	.	.
8AA/ 8E 8G	8cc#\J	.	.	.	.
=16	=16	=16	=16	=16	=16
!	!LO:TX:b:t=Fine.	!	!	!	!
8D\L 8F#	8dd\L	.	.	4.ryy	.
8D\J 8F# 8A	8dd\J 8ff# 8aa 8ddd	.	.	.	.
8r	8r	.	.	.	.
=17||;	=17||;	=17||;	=17||;	=17||	=17||
*k[f#c#g#]	*k[f#c#g#]	*	*	*k[f#c#g#]	*
!	!LO:TUP:a	!	!	!	!
8AA\L	(24ccc#\LL	.	mf	4.ryy	.
.	24bb\	.	.	.	.
.	24ccc#\JJ)	.	.	.	.
8E\ 8A 8c#	8aa\L	.	.	.	.
8E\J 8A 8c#	16gg#\L	.	.	.	.
.	16ff#\JJ	.	.	.	.
=18	=18	=18	=18	=18	=18
8C#\L	16.ee\LL	.	.	4.ryy	.
.	32ee\JJk	.	.	.	.
8E\ 8A 8c#	8aa\L	.	.	.	.
8E\J 8A 8c#	8cc#\J	.	.	.	.
=19	=19	=19	=19	=19	=19
!	!LO:TUP:b	!	!	!	!
8EE\L	(24b/LL	.	.	4.ryy	.
.	24a#X/	.	.	.	.
.	24b/JJ)	.	.	.	.
8E\ 8G# 8d	8dd\L	.	.	.	.
8E\J 8G# 8d	16b\L	.	.	.	.
.	16g#\JJ	.	.	.	.
!LO:LB:g=original	!LO:LB:g=original	!	!	!LO:LB:g=original	!
=20	=20	=20	=20	=20	=20
8AA\L	16.a\LL	.	.	4.ryy	.
.	32cc#\JJk	.	.	.	.
8E\ 8A 8c#	8ff#\L	.	.	.	.
8E\J 8A 8c#	8ee\J	.	.	.	.
=21	=21	=21	=21	=21	=21
!	!LO:TUP:a	!	!	!	!
8C#\L	(24ee\LL	.	.	4.ryy	.
.	24ff#\	.	.	.	.
.	24gg#\JJ)	.	.	.	.
8E\ 8A 8c#	8aa\L	.	.	.	.
8E\J 8A 8c#	16gg#\L	.	.	.	.
.	16ff#\JJ	.	.	.	.
=22	=22	=22	=22	=22	=22
8AA\L	16.ee\LL	.	.	4.ryy	.
.	32ee\JJk	.	.	.	.
8E\ 8A 8c#	8aa\L	.	.	.	.
8E\J 8A 8c#	8cc#\J	.	.	.	.
=23	=23	=23	=23	=23	=23
8D#X\ 8F# 8B	16.b\LL	.	f	4.ryy	.
.	32aa\JJk	.	.	.	.
4E\ 4G# 4B	16gg#\LL	.	.	.	.
.	16ee\	.	.	.	.
.	16gg#\	.	.	.	.
.	16bb\JJ	.	.	.	.
=24	=24	=24	=24	=24	=24
8BB\L 8D#X 8F# 8B	16.dd#X\LL 16.ff#	.	.	4.ryy	.
.	32aa\JJk	.	.	.	.
8E\ 8G# 8B	8gg#W\L	.	.	.	.
8E\J 8G# 8B	8ee\J	.	.	.	.
=25	=25	=25	=25	=25	=25
!	!LO:TUP:a	!	!	!	!
8AA\L	(24ccc#\LL	.	mf	4.ryy	.
.	24bb\	.	.	.	.
.	24ccc#\JJ)	.	.	.	.
8E\ 8A 8c#	8aa\L	.	.	.	.
8E\J 8A 8c#	16gg#\L	.	.	.	.
.	16ff#\JJ	.	.	.	.
!LO:LB:g=original	!LO:LB:g=original	!	!	!LO:LB:g=original	!
=26	=26	=26	=26	=26	=26
8C#\L	16.ee\LL	.	.	4.ryy	.
.	32ee\JJk	.	.	.	.
8E\ 8A 8c#	8aa\L	.	.	.	.
8E\J 8A 8c#	8cc#\J	.	.	.	.
=27	=27	=27	=27	=27	=27
!	!LO:TUP:b	!	!	!	!
8EE\L	(24b/LL	.	.	4.ryy	.
.	24a#X/	.	.	.	.
.	24b/JJ)	.	.	.	.
8E\ 8G# 8d	8dd\L	.	.	.	.
8E\J 8G# 8d	16b\L	.	.	.	.
.	16g#\JJ	.	.	.	.
=28	=28	=28	=28	=28	=28
8AA\L	16.a\LL	.	.	4.ryy	.
.	32cc#\JJk	.	.	.	.
8E\ 8A 8c#	8ff#\L	.	.	.	.
8E\J 8A 8c#	8ee\J	.	.	.	.
=29	=29	=29	=29	=29	=29
*^	*	*	*	*	*
4.D/	8D\L	16.ee#X\LL	.	f	4.ryy	.
.	.	32ff#\JJk	.	.	.	.
.	8F#\ 8B	8gg#\L	.	.	.	.
.	8F#\J 8B	8ff#\J	.	.	.	.
=30	=30	=30	=30	=30	=30	=30
4.E/	8E\L	16.ee\LL	.	.	4.ryy	.
.	.	32aa\JJk	.	.	.	.
.	8A\ 8c#	8ee\L	.	.	.	.
.	8A\J 8c#	16aa\L	.	.	.	.
.	.	16ccc#\JJ	.	.	.	.
*v	*v	*	*	*	*	*
=31	=31	=31	=31	=31	=31
16E\ 16G# 16B	16ee\ 16gg# 16bb	.	.	4.ryy	.
16r	16r	.	.	.	.
4EE^/ 4E	4ee^\ 4gg# 4bb 4eee	.	.	.	.
=32	=32	=32	=32	=32	=32
8AA\L 8C# 8E 8A	8aa\L	.	.	4.ryy	.
8AA\J 8C# 8E 8A	8a\J 8cc# 8ee 8aa	.	.	.	.
!LO:TX:b:t=D. S. al Fine.	!	!	!	!	!
8r	8r	.	.	.	.
!LO:LB:g=original	!LO:LB:g=original	!	!	!LO:LB:g=original	!
=33!|:	=33!|:	=33!|:	=33!|:	=33!|:	=33!|:
*k[f#]	*k[f#]	*	*	*k[f#]	*
*M3/8	*M3/8	*	*	*M3/8	*
!	!LO:TX:a:B:t=Trio.	!	!	!	!
4GG/ 4D	4G/ 4d	.	f	4.ryy	.
8GG/ 8D	8G/ 8d	.	.	.	.
=34	=34	=34	=34	=34	=34
4GG/ 4D	4G/ 4d	.	.	4.ryy	.
8GG/ 8D	8G/ 8d	.	.	.	.
=35	=35	=35	=35	=35	=35
8GG/L 8D	8G/L 8d	.	.	4.ryy	.
8GG/ 8D	8G/ 8d	.	.	.	.
8GG/J 8D	8G/J 8d	.	.	.	.
=36	=36	=36	=36	=36	=36
8GG/L 8D	8G/L 8d	.	.	4.ryy	.
8GG/ 8D	8G/ 8d	.	.	.	.
8GG/J 8D	8G/J 8d	.	.	.	.
!LO:LB:g=original	!LO:LB:g=original	!	!	!LO:LB:g=original	!
=37||	=37||	=37||	=37||	=37||	=37||
*	*^	*	*	*	*
8GG/L 8D	16.d/LL	8B\L	.	p	16.d/LL	Jak
.	32g/JJk	.	.	.	32g/JJk	się
8GG/ 8D	8f#/L	8c\	.	.	8f#/L	ku-
8GG/J 8D	8g/J	8B\J	.	.	8g/J	-ma
=38	=38	=38	=38	=38	=38	=38
8GG/L 8D	16.a/LL	8d\L	.	.	16.a\LL	z ku-
.	32cc/JJk	.	.	.	32cc\JJk	-mą
8GG/ 8D	8b/L	8d\	.	.	8b\L	zej-
8GG/J 8D	8dd/J	8d\J	.	.	8dd\J	-dzie,
=39	=39	=39	=39	=39	=39	=39
8GG/L 8D	16.d/LL	8B\L	.	.	16.d/LL	Kwa-
.	32g/JJk	.	.	.	32g/JJk	-ter-
8GG/ 8D	8f#/L	8c\	.	.	8f#/L	-ką
8GG/J 8D	8g/J	8B\J	.	.	8g/J	się
=40	=40	=40	=40	=40	=40	=40
8GG/L 8D	16.a/LL	8d\L	.	.	16.a\LL	nie
.	32cc/JJk	.	.	.	32cc\JJk	o-
8GG/ 8D	8b/L	8d\	.	.	8b/L	-bej-
8GG/J 8D	8g/J	8B\J	.	.	8g/J	-dzie,
=41	=41	=41	=41	=41	=41	=41
8GG/L 8D	16.d/LL	8B\L	.	.	16.d/LL	I
.	32g/JJk	.	.	.	32g/JJk	ze-
8GG/ 8D	8f#/L	8c\	.	.	8f#/L	-szła
8GG/J 8D	8g/J	8B\J	.	.	8g/J	się
=42	=42	=42	=42	=42	=42	=42
8GG/L 8D	16.a/LL	8d\L	.	.	16.a\LL	je-
.	32cc/JJk	.	.	.	32cc\JJk	-dna
8GG/ 8D	8b/L	8d\	.	.	8b\L	z dru-
8GG/J 8D	8dd/J	8d\J	.	.	8dd\J	-gą,
!LO:LB:g=original	!LO:LB:g=original	!	!	!	!LO:LB:g=original	!
=43	=43	=43	=43	=43	=43	=43
8GG/L 8D	16.d/LL	8B\L	.	.	16.d/LL	I
.	32g/JJk	.	.	.	32g/JJk	mia-
8GG/ 8D	8f#/L	8c\	.	.	8f#/L	-ły
8GG/J 8D	8g/J	8B\J	.	.	8g/J	roz-
=44	=44	=44	=44	=44	=44	=44
8GG/L 8D	16.a/LL	8d\L	.	.	16.a\LL	-mo-
.	32cc/JJk	.	.	.	32cc\JJk	-wę
8GG/ 8D	8b/L	8d\	.	.	8b/L	dłu-
8GG/J 8D	8g/J	8B\J	.	.	8g/J	-gą.
=45	=45	=45	=45	=45	=45	=45
8GG/L 8D	16.a/LL	8d\L	.	.	16.a\LL	I
.	32cc/JJk	.	.	.	32cc\JJk	ze-
8GG/ 8D	8b/L	8d\	.	.	8b\L	-szła
8GG^/J 8D	8dd^/J	8d^\J	.	.	8dd\J	się
=46	=46	=46	=46	=46	=46	=46
8GG/L 8D	16.a/LL	8d\L	.	.	16.a\LL	je-
.	32cc/JJk	.	.	.	32cc\JJk	-dna
8GG/ 8D	8b/L	8d\	.	.	8b\L	z dru-
8GG^/J 8D	8dd^/J	8d^\J	.	.	8dd\J	-gą.
!LO:LB:g=original	!LO:LB:g=original	!	!	!	!LO:LB:g=original	!
=47	=47	=47	=47	=47	=47	=47
8GG/L 8D	16.a/LL	8d\L	.	.	16.a\LL	I
.	32cc/JJk	.	.	.	32cc\JJk	mia-
8GG/ 8D	8b/L	8d\	.	.	8b\L	-ły
8GG^/J 8D	8dd^/J	8d^\J	.	.	8dd\J	roz-
=48	=48	=48	=48	=48	=48	=48
8GG/L 8D	16.a/LL	8d\L	.	.	16.a\LL	-mo-
.	32cc/JJk	.	.	.	32cc\JJk	-wę
8GG/ 8D	8b/L	8d\	.	.	8b/L	dłu-
8GG^/J 8D	8g^/J	8B^\J	.	.	8g/J	-gą.
*	*v	*v	*	*	*	*
=49	=49	=49	=49	=49	=49
16GG/ 16BB 16D 16G	16g\ 16b 16gg	hop!	f	4.ryy	.
16r	16r	.	.	.	.
4GG/ 4BB 4D 4G	4g^\ 4b 4dd	ha!	.	.	.
=50	=50	=50	=50	=50	=50
8GG\L	16.bb\LL	.	.	4.ryy	.
.	32ddd\JJk	.	.	.	.
8D\ 8F# 8A 8c	8ccc\L	.	.	.	.
8D\J 8F# 8A 8c	16bb\L	.	.	.	.
.	16aa\JJ	.	.	.	.
=51	=51	=51	=51	=51	=51
8GG\L	16.bb\LL	.	.	4.ryy	.
.	32ddd\JJk	.	.	.	.
8D\ 8F# 8c	8ccc\L	.	.	.	.
8G\J 8B	16bb\L	.	.	.	.
.	16aa\JJ	.	.	.	.
=52	=52	=52	=52	=52	=52
8D\L	8aa\	.	.	4.ryy	.
.	(8qccc#X/	.	.	.	.
8F#\ 8A 8d	8dd\L) 8ddd	.	.	.	.
.	(8qccc#/	.	.	.	.
8F#\J 8A 8d	8dd\J) 8ddd	.	.	.	.
=53	=53	=53	=53	=53	=53
16GG/ 16BB 16D 16G	16g\ 16b 16gg	hop!	.	4.ryy	.
16r	16r	.	.	.	.
4GG/ 4BB 4D 4G	4g^\ 4b 4dd	ha!	.	.	.
=54	=54	=54	=54	=54	=54
8GG\L	16.bb\LL	.	.	4.ryy	.
.	32ddd\JJk	.	.	.	.
8D\ 8F# 8A 8c	8ccc\L	.	.	.	.
8D\J 8F# 8A 8c	16bb\L	.	.	.	.
.	16aa\JJ	.	.	.	.
=55	=55	=55	=55	=55	=55
8GG\L	16.gg\LL	.	.	4.ryy	.
.	32gg\JJk	.	.	.	.
8D\ 8F# 8A 8c	8aaW\L	.	.	.	.
8D\J 8F# 8A 8c	16ff#\L	.	.	.	.
.	16dd\JJ	.	.	.	.
=56	=56	=56	=56	=56	=56
8G\L 8B	8gg\L	.	.	4.ryy	.
8GG\J 8G	8g\J 8b 8dd 8gg	.	.	.	.
8r	8r	.	.	.	.
=:|!	=:|!	=:|!	=:|!	=:|!	=:|!
*-	*-	*-	*-	*-	*-
!!!RDF**kern: > = above
!!!RDF**kern: < = below
!!!system-decoration: s1[(s2,s3)]
!!!ENC: Filip Voros
!!!END: 2022-08-02
!!!ENC: Julita Ruszuk
!!!END: 2022-09-02!!!YEC: Copyright 2022 Narodowy Instytut Fryderyka Chopina (https://polishscores.org)
!!!YEM: License CC-BY-4.0 (https://creativecommons.org/licenses/by/4.0)
